!! 00000] TT[WS
!!!OTL: JinÅ tan shisheng
!!!ARE: Asia, China, Shanxi Jinbei
!! Ethnic Group: Han
!! WII, 167
!!!SCT: J0651
!!!YEM: Copyright 1995, estate of Helmut Schaffrath.
**kern
*ICvox
*Ivox
*M2/4
*k[b-]
*F:
{8f
8e
8d
8c
=1
8d
8c
4cc
=2
8dd
16cc
16cc
8cc
8a
=3
2g}
=4
{8g
8a
4cc
=5
8ff
8ff
8dd
8cc
=6
8cc
8a
8g
16f
16d
=7
2c}
=8
{8c
8d
4f
=9
8g
8a
4cc
=10
8cc
8a
8g
8f
=11
2d}
=12
{8cc
8dd
4cc
=13
8ff
8dd
4cc
=14
8cc
8f
8g
8a
=15
8cc
8a
8g
16f
16d
=16
2c}
==
!!!AGN: Xiaodiao, Chundiao. Aisu
!!!ONB: ESAC (Essen Associative Code) Database: CHINA
!!!AMT: simple duple
!!!AIN: vox
!!!EED: Helmut Schaffrath
!!!EEV: 1.0
*-
